src/assets/our_advantages/item-oa-3.svg

<svg width="100" height="100" viewBox="0 0 100 100" fill="none" xmlns="http://www.w3.org/2000/svg">
<circle cx="50" cy="50" r="50" fill="#0F76D1"/>
<path d="M50 26C45.2533 26 40.6131 27.4076 36.6663 30.0447C32.7195 32.6819 29.6434 36.4302 27.8269 40.8156C26.0104 45.201 25.5351 50.0266 26.4612 54.6822C27.3872 59.3377 29.673 63.6141 33.0294 66.9706C36.3859 70.327 40.6623 72.6128 45.3178 73.5388C49.9734 74.4649 54.799 73.9896 59.1844 72.1731C63.5698 70.3566 67.3181 67.2805 69.9553 63.3337C72.5924 59.3869 74 54.7467 74 50C73.9933 43.6369 71.4626 37.5363 66.9631 33.0369C62.4637 28.5374 56.3631 26.0067 50 26ZM50 70.3077C45.9835 70.3077 42.0572 69.1167 38.7177 66.8852C35.3781 64.6538 32.7752 61.4822 31.2381 57.7714C29.7011 54.0607 29.2989 49.9775 30.0825 46.0382C30.8661 42.0989 32.8002 38.4804 35.6403 35.6403C38.4804 32.8002 42.0989 30.8661 46.0382 30.0825C49.9775 29.2989 54.0607 29.7011 57.7714 31.2381C61.4822 32.7752 64.6538 35.3781 66.8852 38.7176C69.1167 42.0572 70.3077 45.9835 70.3077 50C70.3016 55.3841 68.1601 60.5458 64.353 64.353C60.5459 68.1601 55.3841 70.3016 50 70.3077ZM46.3077 44.4615C46.3077 44.9512 46.1132 45.4207 45.767 45.767C45.4208 46.1132 44.9512 46.3077 44.4615 46.3077H42.6154V55.5385C42.6154 56.0281 42.4209 56.4977 42.0747 56.8439C41.7284 57.1901 41.2589 57.3846 40.7692 57.3846C40.2796 57.3846 39.81 57.1901 39.4638 56.8439C39.1176 56.4977 38.9231 56.0281 38.9231 55.5385V46.3077H37.0769C36.5873 46.3077 36.1177 46.1132 35.7715 45.767C35.4253 45.4207 35.2308 44.9512 35.2308 44.4615C35.2308 43.9719 35.4253 43.5023 35.7715 43.1561C36.1177 42.8099 36.5873 42.6154 37.0769 42.6154H44.4615C44.9512 42.6154 45.4208 42.8099 45.767 43.1561C46.1132 43.5023 46.3077 43.9719 46.3077 44.4615ZM64.7692 44.4615V55.5385C64.7692 56.0281 64.5747 56.4977 64.2285 56.8439C63.8823 57.1901 63.4127 57.3846 62.9231 57.3846C62.4334 57.3846 61.9639 57.1901 61.6177 56.8439C61.2714 56.4977 61.0769 56.0281 61.0769 55.5385V49.3746L57.8462 53.0669C57.6729 53.2634 57.4598 53.4207 57.2211 53.5285C56.9824 53.6362 56.7235 53.692 56.4615 53.692C56.1996 53.692 55.9407 53.6362 55.702 53.5285C55.4632 53.4207 55.2502 53.2634 55.0769 53.0669L51.8462 49.3746V55.5385C51.8462 56.0281 51.6517 56.4977 51.3054 56.8439C50.9592 57.1901 50.4896 57.3846 50 57.3846C49.5104 57.3846 49.0408 57.1901 48.6946 56.8439C48.3484 56.4977 48.1539 56.0281 48.1539 55.5385V44.4615C48.1549 44.087 48.2698 43.7216 48.4834 43.4138C48.6969 43.1061 48.9991 42.8707 49.3496 42.7387C49.7002 42.6067 50.0826 42.5845 50.446 42.675C50.8095 42.7655 51.1369 42.9645 51.3846 43.2454L56.4615 49.0423L61.5385 43.2454C61.7862 42.9645 62.1136 42.7655 62.477 42.675C62.8405 42.5845 63.2229 42.6067 63.5735 42.7387C63.924 42.8707 64.2262 43.1061 64.4397 43.4138C64.6533 43.7216 64.7682 44.087 64.7692 44.4615Z" fill="white"/>
</svg>

<svg xmlns="http://www.w3.org/2000/svg" width="100" height="100" fill="none"><circle cx="50" cy="50" r="50" fill="#0F76D1"/><path fill="#fff" d="M50 26a24 24 0 1 0 24 24 24.025 24.025 0 0 0-24-24m0 44.308A20.307 20.307 0 1 1 70.308 50 20.33 20.33 0 0 1 50 70.308M46.308 44.46a1.846 1.846 0 0 1-1.846 1.847h-1.847v9.23a1.846 1.846 0 0 1-3.692 0v-9.23h-1.846a1.846 1.846 0 0 1 0-3.693h7.385a1.846 1.846 0 0 1 1.846 1.846m18.461 0V55.54a1.846 1.846 0 0 1-3.692 0v-6.164l-3.23 3.692a1.847 1.847 0 0 1-2.77 0l-3.23-3.692v6.163a1.846 1.846 0 1 1-3.693 0V44.463a1.846 1.846 0 0 1 3.23-1.217l5.078 5.797 5.076-5.797a1.846 1.846 0 0 1 3.231 1.217"/></svg>
